sharp/svg/group.svg

<svg xmlns="http://www.w3.org/2000/svg" width="24" height="24"><path fill="none" d="M0 0h24v24H0V0z"/><g fill="currentColor"><path d="M16 11c1.66 0 2.99-1.34 2.99-3S17.66 5 16 5s-3 1.34-3 3 1.34 3 3 3zm-8 0c1.66 0 2.99-1.34 2.99-3S9.66 5 8 5 5 6.34 5 8s1.34 3 3 3zm0 2c-2.33 0-7 1.17-7 3.5V19h14v-2.5c0-2.33-4.67-3.5-7-3.5zm8 0c-.29 0-.62.02-.97.05 1.16.84 1.97 1.97 1.97 3.45V19h6v-2.5c0-2.33-4.67-3.5-7-3.5z"/></g></svg>

<?xml version="1.0" encoding="utf-8"?>
<!-- Generator: Adobe Illustrator 19.1.0, SVG Export Plug-In . SVG Version: 6.00 Build 0)  -->
<svg version="1.1" xmlns="http://www.w3.org/2000/svg" xmlns:xlink="http://www.w3.org/1999/xlink" x="0px" y="0px" width="24px"
	 height="24px" viewBox="0 0 24 24" enable-background="new 0 0 24 24" xml:space="preserve">
<g id="Bounding_Boxes">
	<g id="ui_x5F_spec_x5F_header_copy_2">
	</g>
	<path fill="none" d="M0,0h24v24H0V0z"/>
</g>
<g id="Sharp" fill="currentColor">
	<path d="M16,11c1.66,0,2.99-1.34,2.99-3S17.66,5,16,5s-3,1.34-3,3S14.34,11,16,11z M8,11c1.66,0,2.99-1.34,2.99-3S9.66,5,8,5
		S5,6.34,5,8S6.34,11,8,11z M8,13c-2.33,0-7,1.17-7,3.5V19h14v-2.5C15,14.17,10.33,13,8,13z M16,13c-0.29,0-0.62,0.02-0.97,0.05
		C16.19,13.89,17,15.02,17,16.5V19h6v-2.5C23,14.17,18.33,13,16,13z"/>
</g>
</svg>
